icons/arrow-downleft.svg

<svg width="24" height="24" viewBox="0 0 24 24" fill="none" xmlns="http://www.w3.org/2000/svg">
<path fill-rule="evenodd" clip-rule="evenodd" d="M7.87226 15.9863C7.57936 15.6934 7.57936 15.2185 7.87226 14.9256L14.9433 7.85454C15.2362 7.56165 15.7111 7.56165 16.004 7.85454C16.2969 8.14744 16.2969 8.62231 16.004 8.9152L8.93292 15.9863C8.64002 16.2792 8.16515 16.2792 7.87226 15.9863Z" fill="black"/>
<path fill-rule="evenodd" clip-rule="evenodd" d="M9.03716 15.0593L14.2513 14.9183C14.6654 14.9071 15.0101 15.2337 15.0213 15.6478C15.0325 16.0619 14.7059 16.4066 14.2918 16.4178L9.04912 16.5595L9.03899 16.5595C8.20051 16.5595 7.51117 15.8701 7.51117 15.0317L7.51117 15.0217L7.58195 9.71837C7.58747 9.30419 7.9277 8.97291 8.34188 8.97843C8.75606 8.98396 9.08734 9.32419 9.08182 9.73837L9.01123 15.0325C9.01149 15.0347 9.01297 15.041 9.02131 15.0493C9.0286 15.0566 9.03436 15.0587 9.03716 15.0593Z" fill="black"/>
</svg>

<svg xmlns="http://www.w3.org/2000/svg" fill="none" viewBox="0 0 24 24">
  <path fill="#000" fill-rule="evenodd" d="M7.872 15.986a.75.75 0 0 1 0-1.06l7.071-7.071a.75.75 0 0 1 1.061 1.06l-7.071 7.071a.75.75 0 0 1-1.06 0Z" clip-rule="evenodd"/>
  <path fill="#000" fill-rule="evenodd" d="m9.037 15.06 5.214-.142a.75.75 0 1 1 .04 1.5l-5.242.142h-.01c-.838 0-1.528-.69-1.528-1.528v-.01l.07-5.304a.75.75 0 1 1 1.5.02l-.07 5.295c0 .002.002.008.01.016s.013.01.016.01Z" clip-rule="evenodd"/>
</svg>
